!!!OTL: DER MEERESFLUTH MIT PURPURGLUTH
!!!ARE: Europa, Mitteleuropa, Deutschland
!!!SCT: F0355
!!!YEM: Copyright 1995, estate of Helmut Schaffrath.
**kern
*ICvox
*Ivox
*M6/4
*k[f#]
*G:
{4d
=1
2g
4a
2b
4a
=2
2cc
4b
2a}
{4a
=3
4b
4cc#
4dd
4ee
4gg
4cc
=4
2dd
2.r}
{4d
=5
2a
4b
2cc
4a
=6
2dd
4cc
2b}
{4ee
=7
4dd
4gg
4b
4dd
4cc
4a
=8
2g
2.r}
==
!!!AGN: Jugend - Lied, Tageszeiten, Morgen
!!!ONB: ESAC (Essen Associative Code) Database: FINK
!!!AMT: compound duple
!!!AIN: vox
!!!EED: Helmut Schaffrath
!!!EEV: 1.0
*-
